X: 115
T: Grand Signor
%%VWML:Wrights-3753-p58-0
F: http://www.vwml.org/record/Wrights/3753/p58
%R: reel
B: Daniel Wright "Wright's Compleat Collection of Celebrated Country Dances" 1740 p.58
S: http://library.efdss.org/cgi-bin/dancebooks.cgi
Z: 2014 John Chambers <jc:trillian.mit.edu>
N: Repeats modified to match the "Each strain twice" instruction.
M: C|
L: 1/8
K: G
%-------------------------
|:\
g4 d4 | BcBc d2G2 | g4 d4 | B2d^c d4 ::\
g4 d4 | e=fef g2c2 | a4 e4 | fgfg a2d2 |\
b4 f4 | gaga b2e2 |
a4 g4 | f6 d2 |\
efef g2B2 | cdcd e2G2 | ABAB c2d2 | B2Bc dede |\
cdcd BcBc | A2e2 d2c2 | B4 A4 | G8 :|
%-------------------------
%%center Each strain twice.
%%begintext align
%% The 1st man & 2d Wo. foot it & turn single .| 2d man &
%% 1st wo do the same :| 1st man change with 2d wo. the
%% 2d man with 1st wo. lead to the wall back again hands
%% quite round :| (Now the men are in the we. Side)
%% hands with your partners draw in each place, turn
%% Partners half round, all 4 turn single, 1st Cu. cross
%% over figure in and cast off :|
%%endtext
%-------------------------
%%sep 2 4 300
T: Whirle it about
T: Longways for as many as will.
%R: jig
B: Daniel Wright "Wright's Compleat Collection of Celebrated Country Dances" 1740 p.58
S: http://library.efdss.org/cgi-bin/dancebooks.cgi
Z: 2014 John Chambers <jc:trillian.mit.edu>
N: Repeats modified to match the "Each strain twice" instruction.
M: 6/8
L: 1/8
K: F
%-------------------------
c |\
faf fcf | f3 fed | cdA BcG | A2F F2c |\
faf fFf | f3 gf2 | edc Gc=B | c3- c2 :: g |\
e>fg cde |
f3 fga |\
d>ef efd | A3- AaA | AaA AaA | A3- Aag |\
f>ed d>e^c | d3 cBA | fAB G2F | F3- F2 :| %-------------------------
%%center Each strain twice.
%%begintext align
%% The 1st man turn the 2d wo. and cast off .|
%% 2d wo. turn 1st man & cast off :| lead to the wall %% back again, all four take hands & go quite round %% .| the 1st Cu. lead through 2d Cu. & cast off %% & foot it to each other, then turn hands :| %%endtext
%-------------------------
%%sep 2 4 300
